icons/school-15.svg

<?xml version="1.0" encoding="utf-8"?>
<!-- Generator: Adobe Illustrator 19.2.1, SVG Export Plug-In . SVG Version: 6.00 Build 0)  -->
<!DOCTYPE svg PUBLIC "-//W3C//DTD SVG 1.1//EN" "http://www.w3.org/Graphics/SVG/1.1/DTD/svg11.dtd">
<svg version="1.1" id="Layer_1" xmlns="http://www.w3.org/2000/svg" xmlns:xlink="http://www.w3.org/1999/xlink" x="0px" y="0px"
	 width="15px" height="15px" viewBox="0 0 15 15" style="enable-background:new 0 0 15 15;" xml:space="preserve">
<path d="M11,13v-1h2v-1H9.5v-1H13V9h-2V8h2V7h-2V6h2V5H9.5V4H13V3h-2V2h2V1H8v13h5v-1H11z M6,11H2V1h4V11z M6,12l-2,2l-2-2H6z"/>
</svg>

<svg id="Layer_1" data-name="Layer 1" xmlns="http://www.w3.org/2000/svg" width="15" height="15" viewBox="0 0 15 15">
  <title>school-15</title>
  <path d="M11,13V12h2V11H9.5V10H13V9H11V8h2V7H11V6h2V5H9.5V4H13V3H11V2h2V1H8V14h5V13H11ZM6,11H2V1H6V11Zm0,1L4,14,2,12H6Z"/>
</svg>
